!!!OTL: Conscritlied (3-33), S. 107
!!!id: P1005
**kern
*clefG2
*k[f#c#]
*D:
{4dd
=1
4dd
8a
8a
4a
8g
8f#
=2
2f#
4e}
=3
{4f#
=4
4g
4b
4a
4g
=5
4f#
4a
2dd}
=6
2.r
=7
{4f#
=8
4.e
8e
4f#
4g
=9
4a
4cc#
4ee
8cc#
8cc#
=10
4.dd
8b
4ee
4cc#
=11
2a}
4r
=12
{8a
8g
=13
8f#
8e
8f#
8f#
4f#
4r
=14
8a
8a
8a
8b
4a
4r
=15
4a
8g
8f#
4g
4a
=16
4f#
4a
4dd}
4r
=17
{8f#
8e
8f#
8g
4f#
4r
=18
8a
8a
8a
8b
4a
4r
=19
8a
8g
8g
8g
4g
4a
=20
2f#}
4r
==
*-
!!!minrhy: 8
!!!meters: 4/4 ]  ZZ[5
!!!cut: Conscritlied (3-33), S. 107
!!!reg: Lothringen
!!!trd: PINCK, Louis: Verklingende Weisen, Bd3, Metz 1933
!!!rhy1: X_  X_XXX_XX  X__X_
!!!rhy2: X_  X_X_X_X_  X_X_X__  0__.
!!!key: P1005  08  D 4/4 ]  ZZ[5
!!!mod: HEPTATONIK IONISCH]  AMBITUS[8
!!!kad: 2+15+13
!!!akz: +1532_453+1_235+2+1+25_3355543+1_3355543_
!!!fot: 'a__b__c__d__dv_
!!!for: 'a__b__c__d__e__
!!!fok: '\__~a_^a_Wa_^__
!! PHRAS[VORWIEGEND AUFTAKTIG]
!!!fkt: Soldatenlied
!! LOTH VKL
!! PR[14] 2K[4] 2G[18] 3K[4] 3G[4] 4A[7] 4Ü[0] 5A[0] 6K[0] 6G[0]
!! 7K[0] 7G[0] 8A[0] MEHR[0] SI[36] ABS[28] SR[21] SP[14]
!! ST[8] 2k[7] 2g[21] 3k[7] 3g[7] 4d[4] 4ü[0] 5d[4] 6k[0] 6g[0]
!! 7k[0] 7g[0] 8d[0] mehr[0] si[50] dm[-14] sr[29] sp[21]
!! 1F[7] 2F[34] 3F[45] 4F[7] LF[0] 2P[7] 3P[0] 4P[0] TRI[0] DF[5] AB[29]
!! TF[0] U3K[0] U3[0] U4[0] U4Ü[0] U5[3] U6K[0] U6[0] U7K[0] U7[0]
!! N1[14] N2K[0] N2[17] N3K[0] N3[21] N4[14] N4Ü[0] N5[21] N6K[0] N6[7]
!!!n7k: 0] N7[0] O1[3] O2K[0] O2[0] O3K[0] O3[0] HÖ[0
